webroot/assets/modal/modal-responsive-tablet-video.svg

<svg xmlns="http://www.w3.org/2000/svg" width="768" height="391"><path fill="#151515" d="M0 0h768v391H0z" opacity=".5"/><path fill="#151515" d="M150 64h468v263H150z"/><g fill="#fff" transform="translate(352 164)"><circle cx="32" cy="32" r="32" opacity=".25"/><path d="M44 32L24 42V22z"/></g><path fill="none" d="M626 42h14v14h-14z"/><path fill="#fff" d="M634.9 49l2.84-2.84a.9.9 0 0 0 0-1.27l-.63-.64a.9.9 0 0 0-1.25 0L633 47.1l-2.84-2.84a.9.9 0 0 0-1.27 0l-.64.63a.9.9 0 0 0 0 1.26L631.1 49l-2.84 2.84a.9.9 0 0 0 0 1.27l.63.64a.9.9 0 0 0 1.26 0L633 50.9l2.84 2.84a.9.9 0 0 0 1.27 0l.64-.63a.9.9 0 0 0 0-1.25z"/><g opacity=".04"><path fill="#00f" d="M738 0h30v391h-30z" opacity=".75"/><path fill="#f00" d="M690 0h48v391h-48zM630 0h48v391h-48zM570 0h48v391h-48zM510 0h48v391h-48zM450 0h48v391h-48zM390 0h48v391h-48zM330 0h48v391h-48zM270 0h48v391h-48zM210 0h48v391h-48zM150 0h48v391h-48zM90 0h48v391H90zM30 0h48v391H30z" opacity=".75"/><path fill="#00f" d="M0 0h30v391H0z" opacity=".75"/></g></svg>

<svg xmlns="http://www.w3.org/2000/svg" width="768" height="391" viewBox="0 0 768 391"><defs><style>.a,.b{fill:#151515;}.a{opacity:0.5;}.c,.d{fill:#fff;}.c{opacity:0.25;}.e{fill:none;}.f{opacity:0.04;}.g{fill:blue;}.g,.h{opacity:0.75;}.h{fill:red;}</style></defs><path class="a" d="M0,0H768V391H0Z"/><path class="b" d="M150,64H618V327H150Z"/><g transform="translate(352 164)"><circle class="c" cx="32" cy="32" r="32"/><path class="d" d="M44,32,24,42V22Z"/></g><path class="e" d="M626,42h14V56H626Z"/><path class="d" d="M634.9,49l2.84-2.84a.9.9,0,0,0,0-1.27l-.63-.64a.9.9,0,0,0-1.25,0L633,47.1l-2.84-2.84a.9.9,0,0,0-1.27,0l-.64.63a.9.9,0,0,0,0,1.26L631.1,49l-2.84,2.84a.9.9,0,0,0,0,1.27l.63.64a.9.9,0,0,0,1.26,0L633,50.9l2.84,2.84a.9.9,0,0,0,1.27,0l.64-.63a.9.9,0,0,0,0-1.25Z"/><g class="f"><path class="g" d="M738,0h30V391H738Z"/><path class="h" d="M690,0h48V391H690ZM630,0h48V391H630ZM570,0h48V391H570ZM510,0h48V391H510ZM450,0h48V391H450ZM390,0h48V391H390ZM330,0h48V391H330ZM270,0h48V391H270ZM210,0h48V391H210ZM150,0h48V391H150ZM90,0h48V391H90ZM30,0H78V391H30Z"/><path class="g" d="M0,0H30V391H0Z"/></g></svg>
